X:939
T:Reel 939
M:4/4
K:Gmaj
L:1/8
d2Be d2Bd|gdfd cAAG|GBBc defa|gdec dgg2|g2Bd dcBA|G2 (3Bcd eAAf|gfed edcd|cedc BGGf| (3afa gf dfaf|gefg agbg|defg abc'a| (3bc'd' af bgaf| (3efg gf gabc'|d'bc'a  (3bc'd' af|gefd ecdB|cBAB cdef|
